; GRBL CNC GCode file
; Generated date: 1 June 2025 (18:17)
; Generated by: GCoderCNC (https://github.com/drandrewthomas/gcodercnc2d5)
; Input file: happyface
; Cutting mode: LASER
; Origin position: Bottom left
; Plan dimensions: 100mm wide (X-axis) x 78mm high (Y-axis)
; Maximum feed rate: 200mm/min cutting and 200mm/min moving
; GRBL spindle speed maximum: 1000
; Pass mode: Path by path

; Getting the CNC set up
G21 ; Set units to mm
G17 ; Select XY plane
G90 ; Set absolute coordinate mode
M5 ; Ensure LASER is turned off
G0 X0 Y0 F200 S0 ; Move to work origin
G91 ; Set relative coordinate mode

; Ready to start cutting/engraving


G0 X50.000 Y78.000 F200 S500
G0 F200 S500
M3 ; Turn on the LASER
G1 X0.816 Y-0.006
G1 X0.818 Y-0.014
G1 X0.816 Y-0.026
G1 X0.814 Y-0.038
G1 X0.816 Y-0.046
G1 X0.814 Y-0.058
G1 X0.812 Y-0.066
G1 X0.810 Y-0.078
G1 X0.808 Y-0.088
G1 X0.808 Y-0.100
G1 X0.804 Y-0.108
G1 X0.804 Y-0.118
G1 X0.798 Y-0.130
G1 X0.798 Y-0.140
G1 X0.794 Y-0.150
G1 X0.790 Y-0.158
G1 X0.788 Y-0.170
G1 X0.784 Y-0.180
G1 X0.780 Y-0.190
G1 X0.776 Y-0.200
G1 X0.830 Y-0.226
G1 X0.826 Y-0.236
G1 X0.820 Y-0.248
G1 X0.814 Y-0.260
G1 X0.808 Y-0.272
G1 X0.802 Y-0.282
G1 X0.794 Y-0.292
G1 X0.790 Y-0.304
G1 X0.782 Y-0.314
G1 X0.774 Y-0.326
G1 X0.766 Y-0.336
G1 X0.760 Y-0.346
G1 X0.752 Y-0.356
G1 X0.742 Y-0.368
G1 X0.736 Y-0.376
G1 X0.726 Y-0.388
G1 X0.718 Y-0.396
G1 X0.708 Y-0.408
G1 X0.698 Y-0.416
G1 X0.690 Y-0.426
G1 X0.680 Y-0.436
G1 X0.670 Y-0.444
G1 X0.684 Y-0.470
G1 X0.694 Y-0.496
G1 X0.684 Y-0.508
G1 X0.670 Y-0.516
G1 X0.658 Y-0.526
G1 X0.646 Y-0.536
G1 X0.632 Y-0.546
G1 X0.618 Y-0.554
G1 X0.606 Y-0.562
G1 X0.592 Y-0.574
G1 X0.576 Y-0.580
G1 X0.564 Y-0.590
G1 X0.550 Y-0.596
G1 X0.534 Y-0.606
G1 X0.520 Y-0.614
G1 X0.522 Y-0.640
G1 X0.522 Y-0.672
G1 X0.504 Y-0.678
G1 X0.486 Y-0.686
G1 X0.468 Y-0.694
G1 X0.452 Y-0.700
G1 X0.432 Y-0.708
G1 X0.414 Y-0.714
G1 X0.396 Y-0.722
G1 X0.376 Y-0.726
G1 X0.360 Y-0.732
G1 X0.338 Y-0.740
G1 X0.320 Y-0.742
G1 X0.302 Y-0.748
G1 X0.282 Y-0.754
G1 X0.262 Y-0.756
G1 X0.256 Y-0.808
G1 X0.236 Y-0.814
G1 X0.212 Y-0.816
G1 X0.190 Y-0.820
G1 X0.168 Y-0.822
G1 X0.146 Y-0.826
G1 X0.122 Y-0.828
G1 X0.100 Y-0.830
G1 X0.078 Y-0.830
G1 X0.054 Y-0.832
G1 X0.032 Y-0.832
G1 X0.008 Y-0.834
G1 X-0.014 Y-0.834
G1 X-0.038 Y-0.832
G1 X-0.058 Y-0.832
G1 X-0.084 Y-0.830
G1 X-0.104 Y-0.830
G1 X-0.128 Y-0.826
G1 X-0.150 Y-0.826
G1 X-0.174 Y-0.822
G1 X-0.196 Y-0.818
G1 X-0.218 Y-0.816
G1 X-0.240 Y-0.812
G1 X-0.262 Y-0.808
G1 X-0.268 Y-0.756
G1 X-0.286 Y-0.750
G1 X-0.306 Y-0.748
G1 X-0.324 Y-0.742
G1 X-0.344 Y-0.736
G1 X-0.364 Y-0.732
G1 X-0.382 Y-0.726
G1 X-0.400 Y-0.718
G1 X-0.418 Y-0.714
G1 X-0.438 Y-0.706
G1 X-0.456 Y-0.698
G1 X-0.472 Y-0.692
G1 X-0.492 Y-0.684
G1 X-0.508 Y-0.678
G1 X-0.526 Y-0.668
G1 X-0.508 Y-0.618
G1 X-0.524 Y-0.612
G1 X-0.538 Y-0.604
G1 X-0.552 Y-0.594
G1 X-0.566 Y-0.588
G1 X-0.582 Y-0.580
G1 X-0.594 Y-0.570
G1 X-0.608 Y-0.560
G1 X-0.622 Y-0.554
G1 X-0.636 Y-0.542
G1 X-0.648 Y-0.534
G1 X-0.662 Y-0.524
G1 X-0.672 Y-0.514
G1 X-0.686 Y-0.504
G1 X-0.698 Y-0.494
G1 X-0.662 Y-0.452
G1 X-0.672 Y-0.442
G1 X-0.682 Y-0.434
G1 X-0.692 Y-0.424
G1 X-0.702 Y-0.414
G1 X-0.710 Y-0.406
G1 X-0.718 Y-0.394
G1 X-0.728 Y-0.384
G1 X-0.738 Y-0.376
G1 X-0.744 Y-0.364
G1 X-0.754 Y-0.354
G1 X-0.760 Y-0.344
G1 X-0.770 Y-0.334
G1 X-0.776 Y-0.324
G1 X-0.784 Y-0.312
G1 X-0.790 Y-0.302
G1 X-0.796 Y-0.290
G1 X-0.804 Y-0.280
G1 X-0.808 Y-0.268
G1 X-0.816 Y-0.258
G1 X-0.822 Y-0.246
G1 X-0.826 Y-0.234
G1 X-0.802 Y-0.216
G1 X-0.776 Y-0.198
G1 X-0.780 Y-0.188
G1 X-0.786 Y-0.178
G1 X-0.788 Y-0.166
G1 X-0.790 Y-0.158
G1 X-0.796 Y-0.148
G1 X-0.796 Y-0.138
G1 X-0.802 Y-0.126
G1 X-0.802 Y-0.118
G1 X-0.806 Y-0.106
G1 X-0.806 Y-0.096
G1 X-0.810 Y-0.088
G1 X-0.810 Y-0.076
G1 X-0.814 Y-0.064
G1 X-0.814 Y-0.056
G1 X-0.814 Y-0.044
G1 X-0.816 Y-0.034
G1 X-0.816 Y-0.024
G1 X-0.816 Y-0.014
G1 X-0.818 Y-0.004
G1 X-0.816 Y0.008
G1 X-0.816 Y0.018
G1 X-0.816 Y0.028
G1 X-0.816 Y0.038
G1 X-0.814 Y0.048
G1 X-0.814 Y0.060
G1 X-0.812 Y0.068
G1 X-0.810 Y0.080
G1 X-0.808 Y0.090
G1 X-0.806 Y0.102
G1 X-0.806 Y0.110
G1 X-0.802 Y0.122
G1 X-0.798 Y0.130
G1 X-0.796 Y0.142
G1 X-0.794 Y0.150
G1 X-0.790 Y0.162
G1 X-0.788 Y0.172
G1 X-0.782 Y0.182
G1 X-0.778 Y0.192
G1 X-0.776 Y0.200
G1 X-0.830 Y0.228
G1 X-0.824 Y0.240
G1 X-0.818 Y0.250
G1 X-0.814 Y0.262
G1 X-0.806 Y0.274
G1 X-0.802 Y0.284
G1 X-0.794 Y0.294
G1 X-0.788 Y0.306
G1 X-0.780 Y0.316
G1 X-0.774 Y0.328
G1 X-0.764 Y0.336
G1 X-0.758 Y0.350
G1 X-0.750 Y0.358
G1 X-0.742 Y0.368
G1 X-0.734 Y0.380
G1 X-0.724 Y0.388
G1 X-0.716 Y0.398
G1 X-0.708 Y0.410
G1 X-0.696 Y0.418
G1 X-0.688 Y0.428
G1 X-0.678 Y0.436
G1 X-0.668 Y0.446
G1 X-0.682 Y0.472
G1 X-0.694 Y0.498
G1 X-0.680 Y0.508
G1 X-0.668 Y0.518
G1 X-0.656 Y0.528
G1 X-0.644 Y0.538
G1 X-0.630 Y0.546
G1 X-0.616 Y0.556
G1 X-0.604 Y0.566
G1 X-0.588 Y0.574
G1 X-0.576 Y0.582
G1 X-0.560 Y0.590
G1 X-0.548 Y0.600
G1 X-0.532 Y0.606
G1 X-0.518 Y0.614
G1 X-0.518 Y0.644
G1 X-0.520 Y0.670
G1 X-0.500 Y0.680
G1 X-0.484 Y0.688
G1 X-0.466 Y0.694
G1 X-0.448 Y0.702
G1 X-0.430 Y0.710
G1 X-0.412 Y0.714
G1 X-0.392 Y0.722
G1 X-0.374 Y0.728
G1 X-0.356 Y0.734
G1 X-0.336 Y0.738
G1 X-0.318 Y0.744
G1 X-0.298 Y0.750
G1 X-0.278 Y0.754
G1 X-0.258 Y0.756
G1 X-0.254 Y0.810
G1 X-0.232 Y0.814
G1 X-0.210 Y0.816
G1 X-0.186 Y0.820
G1 X-0.166 Y0.824
G1 X-0.142 Y0.826
G1 X-0.118 Y0.828
G1 X-0.096 Y0.830
G1 X-0.074 Y0.830
G1 X-0.052 Y0.832
G1 X-0.028 Y0.834
G1 X-0.006 Y0.832
G1 X0.018 Y0.834
G1 X0.040 Y0.832
G1 X0.064 Y0.832
G1 X0.086 Y0.830
G1 X0.108 Y0.830
G1 X0.132 Y0.826
G1 X0.152 Y0.824
G1 X0.178 Y0.822
G1 X0.198 Y0.818
G1 X0.222 Y0.816
G1 X0.242 Y0.810
G1 X0.258 Y0.784
G1 X0.270 Y0.756
G1 X0.288 Y0.750
G1 X0.310 Y0.746
G1 X0.326 Y0.742
G1 X0.346 Y0.736
G1 X0.366 Y0.730
G1 X0.384 Y0.726
G1 X0.404 Y0.718
G1 X0.420 Y0.712
G1 X0.440 Y0.706
G1 X0.458 Y0.698
G1 X0.474 Y0.690
G1 X0.494 Y0.684
G1 X0.510 Y0.676
G1 X0.528 Y0.666
G1 X0.510 Y0.618
G1 X0.526 Y0.610
G1 X0.540 Y0.604
G1 X0.554 Y0.594
G1 X0.570 Y0.586
G1 X0.582 Y0.578
G1 X0.596 Y0.568
G1 X0.612 Y0.560
G1 X0.622 Y0.552
G1 X0.638 Y0.542
G1 X0.650 Y0.532
G1 X0.662 Y0.522
G1 X0.676 Y0.514
G1 X0.686 Y0.502
G1 X0.700 Y0.494
G1 X0.664 Y0.450
G1 X0.674 Y0.442
G1 X0.682 Y0.432
G1 X0.694 Y0.422
G1 X0.702 Y0.412
G1 X0.712 Y0.404
G1 X0.720 Y0.394
G1 X0.730 Y0.384
G1 X0.738 Y0.372
G1 X0.746 Y0.364
G1 X0.754 Y0.352
G1 X0.762 Y0.344
G1 X0.770 Y0.332
G1 X0.778 Y0.320
G1 X0.784 Y0.312
G1 X0.790 Y0.300
G1 X0.798 Y0.288
G1 X0.804 Y0.278
G1 X0.810 Y0.268
G1 X0.818 Y0.256
G1 X0.822 Y0.244
G1 X0.826 Y0.232
G1 X0.802 Y0.216
G1 X0.778 Y0.196
G1 X0.782 Y0.186
G1 X0.784 Y0.176
G1 X0.788 Y0.166
G1 X0.792 Y0.156
G1 X0.796 Y0.146
G1 X0.798 Y0.136
G1 X0.800 Y0.126
G1 X0.804 Y0.114
G1 X0.806 Y0.106
G1 X0.806 Y0.094
G1 X0.810 Y0.086
G1 X0.812 Y0.074
G1 X0.812 Y0.064
G1 X0.814 Y0.054
G1 X0.816 Y0.042
G1 X0.814 Y0.034
G1 X0.818 Y0.022
G1 X0.816 Y0.012
G1 X0.502 Y0.002
M5 ; Turn off the LASER

G0 X36.632 Y-49.456 F200 S500
G0 F200 S500
M3 ; Turn on the LASER
G1 X-0.380 Y-0.734
G1 X-0.390 Y-0.728
G1 X-0.406 Y-0.720
G1 X-0.420 Y-0.714
G1 X-0.436 Y-0.704
G1 X-0.452 Y-0.694
G1 X-0.474 Y-0.686
G1 X-0.494 Y-0.676
G1 X-0.514 Y-0.664
G1 X-0.540 Y-0.652
G1 X-0.564 Y-0.640
G1 X-0.590 Y-0.626
G1 X-0.570 Y-0.566
G1 X-0.594 Y-0.554
G1 X-0.620 Y-0.542
G1 X-0.648 Y-0.528
G1 X-0.676 Y-0.516
G1 X-0.704 Y-0.500
G1 X-0.672 Y-0.446
G1 X-0.700 Y-0.432
G1 X-0.726 Y-0.420
G1 X-0.754 Y-0.406
G1 X-0.748 Y-0.376
G1 X-0.736 Y-0.344
G1 X-0.762 Y-0.334
G1 X-0.788 Y-0.320
G1 X-0.816 Y-0.308
G1 X-0.798 Y-0.280
G1 X-0.780 Y-0.254
G1 X-0.804 Y-0.244
G1 X-0.828 Y-0.232
G1 X-0.850 Y-0.222
G1 X-0.826 Y-0.198
G1 X-0.798 Y-0.176
G1 X-0.818 Y-0.166
G1 X-0.838 Y-0.158
G1 X-0.858 Y-0.148
G1 X-0.880 Y-0.138
G1 X-0.844 Y-0.120
G1 X-0.806 Y-0.104
G1 X-0.822 Y-0.096
G1 X-0.838 Y-0.088
G1 X-0.856 Y-0.080
G1 X-0.874 Y-0.072
G1 X-0.892 Y-0.062
G1 X-0.910 Y-0.056
G1 X-0.926 Y-0.046
G1 X-0.810 Y-0.032
G1 X-0.824 Y-0.026
G1 X-0.836 Y-0.020
G1 X-0.894 Y-0.014
G1 X-0.904 Y-0.006
G1 X-0.890 Y0.002
G1 X-0.874 Y0.012
G1 X-0.860 Y0.020
G1 X-0.844 Y0.028
G1 X-0.830 Y0.036
G1 X-0.816 Y0.044
G1 X-0.866 Y0.056
G1 X-0.914 Y0.070
G1 X-0.896 Y0.082
G1 X-0.878 Y0.090
G1 X-0.858 Y0.102
G1 X-0.840 Y0.112
G1 X-0.820 Y0.120
G1 X-0.804 Y0.130
G1 X-0.842 Y0.150
G1 X-0.874 Y0.172
G1 X-0.854 Y0.182
G1 X-0.830 Y0.194
G1 X-0.808 Y0.206
G1 X-0.788 Y0.216
G1 X-0.814 Y0.242
G1 X-0.836 Y0.268
G1 X-0.810 Y0.282
G1 X-0.784 Y0.292
G1 X-0.760 Y0.306
G1 X-0.776 Y0.334
G1 X-0.790 Y0.366
G1 X-0.760 Y0.378
G1 X-0.732 Y0.392
G1 X-0.706 Y0.404
G1 X-0.744 Y0.456
G1 X-0.714 Y0.472
G1 X-0.684 Y0.484
G1 X-0.654 Y0.496
G1 X-0.626 Y0.506
G1 X-0.652 Y0.566
G1 X-0.620 Y0.578
G1 X-0.590 Y0.588
G1 X-0.562 Y0.598
G1 X-0.532 Y0.608
G1 X-0.528 Y0.642
G1 X-0.518 Y0.676
G1 X-0.490 Y0.684
G1 X-0.464 Y0.690
G1 X-0.438 Y0.694
G1 X-0.414 Y0.700
G1 X-0.390 Y0.702
G1 X-0.400 Y0.760
G1 X-0.376 Y0.760
G1 X-0.356 Y0.758
G1 X0.628 Y0.140
G1 X0.782 Y-0.328
G1 X0.790 Y-0.324
G1 X0.798 Y-0.314
G1 X0.778 Y-0.296
G1 X0.756 Y-0.278
G1 X0.766 Y-0.272
G1 X0.776 Y-0.266
G1 X0.788 Y-0.256
G1 X0.796 Y-0.252
G1 X0.810 Y-0.242
G1 X0.820 Y-0.236
G1 X0.802 Y-0.220
G1 X0.782 Y-0.206
G1 X0.794 Y-0.198
G1 X0.806 Y-0.190
G1 X0.818 Y-0.186
G1 X0.832 Y-0.178
G1 X0.848 Y-0.170
G1 X0.788 Y-0.150
G1 X0.802 Y-0.146
G1 X0.814 Y-0.138
G1 X0.828 Y-0.132
G1 X0.842 Y-0.126
G1 X0.856 Y-0.120
G1 X0.830 Y-0.110
G1 X0.804 Y-0.098
G1 X0.818 Y-0.092
G1 X0.828 Y-0.088
G1 X0.844 Y-0.082
G1 X0.856 Y-0.076
G1 X0.870 Y-0.072
G1 X0.840 Y-0.062
G1 X0.806 Y-0.056
G1 X0.820 Y-0.050
G1 X0.832 Y-0.044
G1 X0.844 Y-0.042
G1 X0.856 Y-0.036
G1 X0.868 Y-0.030
G1 X0.882 Y-0.026
G1 X0.896 Y-0.022
G1 X0.806 Y-0.016
G1 X0.818 Y-0.012
G1 X0.828 Y-0.006
G1 X0.840 Y-0.004
G1 X0.854 Y0.000
G1 X0.846 Y0.002
G1 X0.828 Y0.002
G1 X0.814 Y0.006
G1 X0.846 Y0.008
G1 X0.878 Y0.010
G1 X0.858 Y0.012
G1 X0.840 Y0.016
G1 X0.822 Y0.016
G1 X0.806 Y0.022
G1 X0.874 Y0.026
G1 X0.854 Y0.030
G1 X0.836 Y0.034
G1 X0.816 Y0.038
G1 X0.840 Y0.046
G1 X0.858 Y0.052
G1 X0.838 Y0.058
G1 X0.820 Y0.064
G1 X0.802 Y0.070
G1 X0.856 Y0.082
G1 X0.838 Y0.092
G1 X0.820 Y0.098
G1 X0.804 Y0.108
G1 X0.822 Y0.120
G1 X0.838 Y0.136
G1 X0.824 Y0.148
G1 X0.810 Y0.156
G1 X0.800 Y0.170
G1 X0.792 Y0.180
G1 X0.782 Y0.194
G1 X0.776 Y0.206
G1 X0.770 Y0.218
G1 X0.768 Y0.232
G1 X0.766 Y0.246
G1 X0.766 Y0.258
G1 X0.766 Y0.274
G1 X0.772 Y0.288
G1 X0.774 Y0.304
G1 X0.782 Y0.318
G1 X0.788 Y0.334
G1 X0.738 Y0.324
G1 X0.746 Y0.336
G1 X0.756 Y0.352
G1 X0.770 Y0.364
G1 X0.454 Y0.220
M5 ; Turn off the LASER

G0 X-50.344 Y28.464 F200 S500
G0 F200 S500
M3 ; Turn on the LASER
G1 X0.812 Y-0.040
G1 X0.806 Y-0.116
G1 X0.796 Y-0.194
G1 X0.780 Y-0.270
G1 X0.758 Y-0.342
G1 X0.734 Y-0.416
G1 X0.682 Y-0.468
G1 X0.630 Y-0.512
G1 X0.596 Y-0.566
G1 X0.556 Y-0.618
G1 X0.518 Y-0.668
G1 X0.458 Y-0.688
G1 X0.402 Y-0.700
G1 X0.362 Y-0.738
G1 X0.320 Y-0.774
G1 X0.266 Y-0.778
G1 X0.216 Y-0.776
G1 X0.170 Y-0.794
G1 X0.124 Y-0.804
G1 X0.080 Y-0.812
G1 X0.032 Y-0.816
G1 X-0.014 Y-0.818
G1 X-0.060 Y-0.816
G1 X-0.106 Y-0.808
G1 X-0.152 Y-0.798
G1 X-0.196 Y-0.782
G1 X-0.242 Y-0.766
G1 X-0.300 Y-0.786
G1 X-0.348 Y-0.756
G1 X-0.384 Y-0.714
G1 X-0.442 Y-0.704
G1 X-0.500 Y-0.684
G1 X-0.542 Y-0.638
G1 X-0.582 Y-0.586
G1 X-0.616 Y-0.534
G1 X-0.648 Y-0.476
G1 X-0.724 Y-0.442
G1 X-0.750 Y-0.372
G1 X-0.772 Y-0.298
G1 X-0.790 Y-0.224
G1 X-0.802 Y-0.146
G1 X-0.810 Y-0.070
G1 X-0.812 Y0.008
G1 X-0.810 Y0.086
G1 X-0.800 Y0.164
G1 X-0.786 Y0.240
G1 X-0.768 Y0.314
G1 X-0.744 Y0.388
G1 X-0.716 Y0.458
G1 X-0.642 Y0.490
G1 X-0.608 Y0.546
G1 X-0.574 Y0.598
G1 X-0.532 Y0.650
G1 X-0.490 Y0.694
G1 X-0.418 Y0.688
G1 X-0.374 Y0.720
G1 X-0.338 Y0.764
G1 X-0.292 Y0.790
G1 X-0.230 Y0.770
G1 X-0.188 Y0.786
G1 X-0.142 Y0.802
G1 X-0.096 Y0.810
G1 X-0.050 Y0.814
G1 X-0.002 Y0.818
G1 X0.042 Y0.818
G1 X0.090 Y0.810
G1 X0.134 Y0.802
G1 X0.180 Y0.790
G1 X0.226 Y0.772
G1 X0.276 Y0.774
G1 X0.332 Y0.774
G1 X0.370 Y0.726
G1 X0.410 Y0.692
G1 X0.484 Y0.702
G1 X0.526 Y0.656
G1 X0.568 Y0.606
G1 X0.602 Y0.556
G1 X0.636 Y0.498
G1 X0.690 Y0.454
G1 X0.740 Y0.398
G1 X0.764 Y0.328
G1 X0.784 Y0.252
G1 X0.798 Y0.178
G1 X0.808 Y0.100
G1 X0.608 Y0.024
M5 ; Turn off the LASER

G0 X29.508 Y0.764 F200 S500
G0 F200 S500
M3 ; Turn on the LASER
G1 X0.812 Y-0.038
G1 X0.806 Y-0.116
G1 X0.794 Y-0.194
G1 X0.780 Y-0.270
G1 X0.760 Y-0.342
G1 X0.734 Y-0.416
G1 X0.682 Y-0.468
G1 X0.630 Y-0.512
G1 X0.594 Y-0.566
G1 X0.558 Y-0.620
G1 X0.518 Y-0.666
G1 X0.458 Y-0.688
G1 X0.400 Y-0.700
G1 X0.364 Y-0.738
G1 X0.320 Y-0.774
G1 X0.266 Y-0.778
G1 X0.216 Y-0.776
G1 X0.170 Y-0.794
G1 X0.124 Y-0.804
G1 X0.080 Y-0.812
G1 X0.032 Y-0.818
G1 X-0.014 Y-0.816
G1 X-0.060 Y-0.816
G1 X-0.106 Y-0.808
G1 X-0.152 Y-0.798
G1 X-0.198 Y-0.782
G1 X-0.240 Y-0.766
G1 X-0.300 Y-0.786
G1 X-0.348 Y-0.758
G1 X-0.384 Y-0.712
G1 X-0.442 Y-0.704
G1 X-0.500 Y-0.684
G1 X-0.544 Y-0.638
G1 X-0.580 Y-0.588
G1 X-0.616 Y-0.532
G1 X-0.650 Y-0.476
G1 X-0.722 Y-0.444
G1 X-0.750 Y-0.370
G1 X-0.772 Y-0.300
G1 X-0.790 Y-0.222
G1 X-0.804 Y-0.148
G1 X-0.810 Y-0.068
G1 X-0.812 Y0.008
G1 X-0.808 Y0.086
G1 X-0.800 Y0.164
G1 X-0.786 Y0.240
G1 X-0.770 Y0.314
G1 X-0.744 Y0.388
G1 X-0.716 Y0.458
G1 X-0.640 Y0.488
G1 X-0.610 Y0.548
G1 X-0.572 Y0.598
G1 X-0.532 Y0.650
G1 X-0.490 Y0.694
G1 X-0.418 Y0.688
G1 X-0.376 Y0.720
G1 X-0.336 Y0.764
G1 X-0.292 Y0.790
G1 X-0.232 Y0.770
G1 X-0.186 Y0.786
G1 X-0.142 Y0.800
G1 X-0.096 Y0.810
G1 X-0.050 Y0.816
G1 X-0.004 Y0.818
G1 X0.044 Y0.818
G1 X0.088 Y0.810
G1 X0.136 Y0.802
G1 X0.180 Y0.790
G1 X0.226 Y0.772
G1 X0.276 Y0.774
G1 X0.332 Y0.774
G1 X0.370 Y0.726
G1 X0.410 Y0.692
G1 X0.484 Y0.702
G1 X0.526 Y0.656
G1 X0.566 Y0.606
G1 X0.604 Y0.556
G1 X0.636 Y0.498
G1 X0.690 Y0.452
G1 X0.740 Y0.400
G1 X0.764 Y0.328
G1 X0.784 Y0.252
G1 X0.798 Y0.178
G1 X0.808 Y0.100
G1 X0.608 Y0.022
M5 ; Turn off the LASER

G0 X-29.508 Y-11.558 F200 S500
G0 F200 S500
M3 ; Turn on the LASER
G1 X0.816 Y-0.076
G1 X0.782 Y-0.228
G1 X0.718 Y-0.368
G1 X0.652 Y-0.526
G1 X0.514 Y-0.638
G1 X0.354 Y-0.722
G1 X0.186 Y-0.824
G1 X-0.020 Y-0.840
G1 X-0.214 Y-0.792
G1 X-0.384 Y-0.710
G1 X-0.538 Y-0.620
G1 X-0.660 Y-0.496
G1 X-0.730 Y-0.348
G1 X-0.790 Y-0.202
G1 X-0.818 Y-0.054
G1 X-0.814 Y0.102
G1 X-0.774 Y0.252
G1 X-0.704 Y0.390
G1 X-0.628 Y0.536
G1 X-0.492 Y0.652
G1 X-0.330 Y0.734
G1 X-0.160 Y0.826
G1 X0.048 Y0.840
G1 X0.240 Y0.786
G1 X0.406 Y0.700
G1 X0.558 Y0.604
G1 X0.668 Y0.472
G1 X0.740 Y0.330
G1 X0.796 Y0.182
G1 X0.570 Y0.038
M5 ; Turn off the LASER

G0 X29.744 Y-0.084 F200 S500
G0 F200 S500
M3 ; Turn on the LASER
G1 X0.816 Y-0.076
G1 X0.784 Y-0.228
G1 X0.716 Y-0.368
G1 X0.652 Y-0.526
G1 X0.514 Y-0.638
G1 X0.356 Y-0.722
G1 X0.184 Y-0.824
G1 X-0.018 Y-0.840
G1 X-0.216 Y-0.792
G1 X-0.382 Y-0.712
G1 X-0.538 Y-0.620
G1 X-0.660 Y-0.494
G1 X-0.730 Y-0.348
G1 X-0.792 Y-0.204
G1 X-0.818 Y-0.052
G1 X-0.814 Y0.102
G1 X-0.774 Y0.250
G1 X-0.704 Y0.390
G1 X-0.626 Y0.538
G1 X-0.492 Y0.652
G1 X-0.332 Y0.732
G1 X-0.158 Y0.828
G1 X0.046 Y0.840
G1 X0.240 Y0.786
G1 X0.408 Y0.700
G1 X0.556 Y0.602
G1 X0.668 Y0.474
G1 X0.740 Y0.328
G1 X0.796 Y0.184
G1 X0.570 Y0.038
M5 ; Turn off the LASER

G0 X-18.758 Y17.268 F200 S500
G0 F200 S500
M3 ; Turn on the LASER
G1 X-0.754 Y0.400
G1 X-0.750 Y0.372
G1 X-0.748 Y0.344
G1 X-0.744 Y0.318
G1 X-0.808 Y0.312
G1 X-0.804 Y0.280
G1 X-0.800 Y0.248
G1 X-0.796 Y0.214
G1 X-0.792 Y0.182
G1 X-0.820 Y0.152
G1 X-0.848 Y0.122
G1 X-0.844 Y0.082
G1 X-0.840 Y0.044
G1 X-0.834 Y0.004
G1 X-0.830 Y-0.034
G1 X-0.826 Y-0.074
G1 X-0.820 Y-0.112
G1 X-0.816 Y-0.150
G1 X-0.812 Y-0.190
G1 X-0.806 Y-0.228
G1 X-0.782 Y-0.260
G1 X-0.762 Y-0.280
G1 X-0.762 Y-0.308
G1 X-0.764 Y-0.336
G1 X-0.744 Y-0.352
G1 X-0.720 Y-0.368
G1 X-0.724 Y-0.392
G1 X-0.724 Y-0.416
G1 X-0.724 Y-0.442
G1 X-0.682 Y-0.436
G1 X-0.682 Y-0.458
G1 X-0.682 Y-0.480
G1 X-0.684 Y-0.502
G1 X-0.638 Y-0.488
G1 X-0.642 Y-0.508
G1 X-0.640 Y-0.526
G1 X-0.150 Y-0.124
M5 ; Turn off the LASER

G0 X34.882 Y3.564 F200 S500
G0 F200 S500
M3 ; Turn on the LASER
G1 X0.754 Y0.400
G1 X0.752 Y0.372
G1 X0.746 Y0.344
G1 X0.744 Y0.316
G1 X0.808 Y0.314
G1 X0.804 Y0.280
G1 X0.800 Y0.248
G1 X0.796 Y0.214
G1 X0.792 Y0.180
G1 X0.820 Y0.154
G1 X0.850 Y0.120
G1 X0.844 Y0.084
G1 X0.838 Y0.042
G1 X0.836 Y0.006
G1 X0.830 Y-0.036
G1 X0.824 Y-0.072
G1 X0.820 Y-0.112
G1 X0.816 Y-0.150
G1 X0.812 Y-0.190
G1 X0.806 Y-0.230
G1 X0.782 Y-0.258
G1 X0.762 Y-0.280
G1 X0.762 Y-0.308
G1 X0.764 Y-0.336
G1 X0.744 Y-0.352
G1 X0.722 Y-0.368
G1 X0.722 Y-0.392
G1 X0.724 Y-0.418
G1 X0.724 Y-0.440
G1 X0.682 Y-0.438
G1 X0.682 Y-0.458
G1 X0.682 Y-0.480
G1 X0.684 Y-0.502
G1 X0.640 Y-0.488
G1 X0.640 Y-0.506
G1 X0.640 Y-0.526
G1 X0.150 Y-0.126
M5 ; Turn off the LASER

; End of cutting - finishing off
G90 ; Set absolute coordinate mode
G0 X0 Y0 ; Move to work origin
M5 ; Ensure the spindle motor or LASER is turned off
M2 ; End the program
